resources/images/auxiliary_tab_picture.svg

<svg width="16" height="17" xmlns="http://www.w3.org/2000/svg" fill="none">

 <g>
  <title>Layer 1</title>
  <path id="svg_1" fill="#6B6B6B" d="m2.04297,1.22656l11.91403,0c0.5523,0 1,0.44772 1,1l0,2.04802c-3.8286,0.32885 -7.12277,2.52842 -8.96405,5.68038c-0.56041,-0.19867 -1.16342,-0.30672 -1.79095,-0.30672c-1.18116,0 -2.2734,0.38246 -3.15903,1.02976l0,-8.45144c0,-0.55228 0.44771,-1 1,-1zm3.47805,9.62464c-0.41577,-0.1318 -0.85879,-0.203 -1.31902,-0.203c-1.24322,0 -2.36433,0.5199 -3.15903,1.3555l0,2.1369c0,0.5523 0.44771,1 1,1l2.39917,0c0.08124,-1.5276 0.45981,-2.9764 1.07888,-4.2894zm-0.0773,4.2894l8.51328,0c0.5523,0 1,-0.4477 1,-1l0,-8.86195c-5.14325,0.48427 -9.21057,4.6678 -9.51328,9.86195zm-5.40075,-12.91404c0,-1.10457 0.89543,-2 2,-2l11.91403,0c1.1046,0 2,0.89543 2,2l0,11.91404c0,1.1046 -0.8954,2 -2,2l-11.91403,0c-1.10457,0 -2,-0.8954 -2,-2l0,-11.91404zm5.52315,2.50474c0,0.44488 -0.36065,0.80552 -0.80552,0.80552c-0.44488,0 -0.80552,-0.36064 -0.80552,-0.80552c0,-0.44488 0.36064,-0.80552 0.80552,-0.80552c0.44487,0 0.80552,0.36064 0.80552,0.80552zm1,0c0,0.99716 -0.80836,1.80552 -1.80552,1.80552c-0.99716,0 -1.80552,-0.80836 -1.80552,-1.80552c0,-0.99716 0.80836,-1.80552 1.80552,-1.80552c0.99716,0 1.80552,0.80836 1.80552,1.80552z" clip-rule="evenodd" fill-rule="evenodd"/>
 </g>
</svg>

<svg width="16" height="17" viewBox="0 0 16 17" fill="none" xmlns="http://www.w3.org/2000/svg">
<g clip-path="url(#clip0_10670_19571)">
<path fill-rule="evenodd" clip-rule="evenodd" d="M2.04297 1.22656H13.957C14.5093 1.22656 14.957 1.67428 14.957 2.22656V4.27458C11.1284 4.60343 7.83423 6.803 5.99295 9.95496C5.43254 9.75629 4.82953 9.64824 4.202 9.64824C3.02084 9.64824 1.9286 10.0307 1.04297 10.678V2.22656C1.04297 1.67428 1.49068 1.22656 2.04297 1.22656ZM5.52102 10.8512C5.10525 10.7194 4.66223 10.6482 4.202 10.6482C2.95878 10.6482 1.83767 11.1681 1.04297 12.0037V14.1406C1.04297 14.6929 1.49068 15.1406 2.04297 15.1406H4.44214C4.52338 13.613 4.90195 12.1642 5.52102 10.8512ZM5.44372 15.1406H13.957C14.5093 15.1406 14.957 14.6929 14.957 14.1406V5.27865C9.81375 5.76292 5.74643 9.94645 5.44372 15.1406ZM0.0429688 2.22656C0.0429688 1.12199 0.938399 0.226562 2.04297 0.226562H13.957C15.0616 0.226562 15.957 1.12199 15.957 2.22656V14.1406C15.957 15.2452 15.0616 16.1406 13.957 16.1406H2.04297C0.938399 16.1406 0.0429688 15.2452 0.0429688 14.1406V2.22656ZM5.56612 4.7313C5.56612 5.17618 5.20547 5.53682 4.7606 5.53682C4.31572 5.53682 3.95508 5.17618 3.95508 4.7313C3.95508 4.28642 4.31572 3.92578 4.7606 3.92578C5.20547 3.92578 5.56612 4.28642 5.56612 4.7313ZM6.56612 4.7313C6.56612 5.72846 5.75776 6.53682 4.7606 6.53682C3.76344 6.53682 2.95508 5.72846 2.95508 4.7313C2.95508 3.73414 3.76344 2.92578 4.7606 2.92578C5.75776 2.92578 6.56612 3.73414 6.56612 4.7313Z" fill="#6B6B6B"/>
</g>
<defs>
<clipPath id="clip0_10670_19571">
<rect width="16" height="17" fill="white"/>
</clipPath>
</defs>
</svg>
